svg/azure-metrics.svg

<?xml version="1.0" encoding="UTF-8"?>
<svg xmlns="http://www.w3.org/2000/svg" xmlns:xlink="http://www.w3.org/1999/xlink" width="29.511" height="32" viewBox="0 0 29.511 32">
<defs>
<linearGradient id="linear-pattern-0" gradientUnits="userSpaceOnUse" x1="6.57" y1="7.06" x2="6.57" y2="3.76" gradientTransform="matrix(1.81715, 0, 0, 1.81715, -1.545, -0.29)">
<stop offset="0" stop-color="rgb(46.666667%, 22.745098%, 86.27451%)" stop-opacity="1"/>
<stop offset="1" stop-color="rgb(71.764706%, 47.843137%, 95.686275%)" stop-opacity="1"/>
</linearGradient>
<linearGradient id="linear-pattern-1" gradientUnits="userSpaceOnUse" x1="11.02" y1="11.15" x2="11.02" y2="7.86" gradientTransform="matrix(1.81715, 0, 0, 1.81715, -1.545, -0.29)">
<stop offset="0" stop-color="rgb(46.666667%, 22.745098%, 86.27451%)" stop-opacity="1"/>
<stop offset="1" stop-color="rgb(71.764706%, 47.843137%, 95.686275%)" stop-opacity="1"/>
</linearGradient>
<linearGradient id="linear-pattern-2" gradientUnits="userSpaceOnUse" x1="15.15" y1="3.79" x2="15.15" y2="0.5" gradientTransform="matrix(1.81715, 0, 0, 1.81715, -1.545, -0.29)">
<stop offset="0" stop-color="rgb(46.666667%, 22.745098%, 86.27451%)" stop-opacity="1"/>
<stop offset="1" stop-color="rgb(71.764706%, 47.843137%, 95.686275%)" stop-opacity="1"/>
</linearGradient>
<linearGradient id="linear-pattern-3" gradientUnits="userSpaceOnUse" x1="2.85" y1="11.86" x2="2.85" y2="8.57" gradientTransform="matrix(1.81715, 0, 0, 1.81715, -1.545, -0.29)">
<stop offset="0" stop-color="rgb(46.666667%, 22.745098%, 86.27451%)" stop-opacity="1"/>
<stop offset="1" stop-color="rgb(71.764706%, 47.843137%, 95.686275%)" stop-opacity="1"/>
</linearGradient>
</defs>
<path fill-rule="nonzero" fill="rgb(71.764706%, 58.823529%, 97.647059%)" fill-opacity="1" d="M 25.222656 2.652344 L 17.972656 15.554688 L 10.304688 7.742188 L 2.398438 17.988281 L 4.253906 19.445312 L 10.519531 11.355469 L 18.480469 19.480469 L 27.277344 3.835938 Z M 25.222656 2.652344 "/>
<path fill-rule="nonzero" fill="url(#linear-pattern-0)" d="M 13.375 9.539062 C 13.375 11.195312 12.039062 12.539062 10.394531 12.539062 C 8.742188 12.535156 7.410156 11.191406 7.414062 9.539062 C 7.410156 7.890625 8.746094 6.546875 10.394531 6.542969 C 12.039062 6.542969 13.375 7.882812 13.375 9.539062 M 13.375 9.539062 "/>
<path fill-rule="nonzero" fill="url(#linear-pattern-1)" d="M 21.460938 16.972656 C 21.464844 18.621094 20.128906 19.964844 18.480469 19.96875 C 17.6875 19.96875 16.925781 19.652344 16.367188 19.089844 C 15.808594 18.527344 15.496094 17.765625 15.5 16.972656 C 15.5 15.316406 16.835938 13.972656 18.480469 13.972656 C 20.132812 13.976562 21.464844 15.320312 21.460938 16.972656 M 21.460938 16.972656 "/>
<path fill-rule="nonzero" fill="url(#linear-pattern-2)" d="M 28.964844 3.617188 C 28.96875 4.410156 28.65625 5.171875 28.097656 5.734375 C 27.539062 6.296875 26.777344 6.613281 25.984375 6.613281 C 25.191406 6.613281 24.433594 6.296875 23.875 5.734375 C 23.3125 5.171875 23 4.410156 23.003906 3.617188 C 23.003906 1.960938 24.339844 0.617188 25.984375 0.617188 C 27.636719 0.621094 28.96875 1.964844 28.964844 3.617188 M 28.964844 3.617188 "/>
<path fill-rule="nonzero" fill="url(#linear-pattern-3)" d="M 6.613281 18.28125 C 6.617188 19.929688 5.28125 21.273438 3.632812 21.277344 C 1.984375 21.273438 0.648438 19.929688 0.652344 18.28125 C 0.652344 16.625 1.988281 15.28125 3.632812 15.28125 C 5.285156 15.285156 6.617188 16.628906 6.613281 18.28125 M 6.613281 18.28125 "/>
<path fill-rule="nonzero" fill="rgb(0%, 47.058824%, 83.137255%)" fill-opacity="1" d="M 9.265625 17.734375 L 12.9375 17.734375 C 13.21875 17.734375 13.445312 17.964844 13.445312 18.246094 L 13.445312 31 C 13.445312 31.132812 13.390625 31.265625 13.296875 31.359375 C 13.199219 31.453125 13.070312 31.507812 12.9375 31.507812 L 9.265625 31.507812 C 8.988281 31.507812 8.757812 31.28125 8.757812 31 L 8.757812 18.246094 C 8.757812 17.964844 8.988281 17.734375 9.265625 17.734375 M 9.265625 17.734375 "/>
<path fill-rule="nonzero" fill="rgb(0%, 35.686275%, 63.137255%)" fill-opacity="1" d="M 16.734375 22.496094 L 20.40625 22.496094 C 20.6875 22.496094 20.914062 22.722656 20.914062 23.003906 L 20.914062 31 C 20.914062 31.136719 20.859375 31.265625 20.765625 31.359375 C 20.671875 31.453125 20.539062 31.507812 20.40625 31.507812 L 16.734375 31.507812 C 16.453125 31.507812 16.226562 31.28125 16.226562 31 L 16.226562 23.003906 C 16.226562 22.722656 16.453125 22.496094 16.734375 22.496094 M 24.203125 13.121094 L 27.875 13.121094 C 28.15625 13.121094 28.382812 13.347656 28.382812 13.628906 L 28.382812 31 C 28.382812 31.28125 28.15625 31.507812 27.875 31.507812 L 24.203125 31.507812 C 24.066406 31.507812 23.9375 31.453125 23.84375 31.359375 C 23.75 31.265625 23.695312 31.136719 23.695312 31 L 23.695312 13.628906 C 23.695312 13.347656 23.921875 13.121094 24.203125 13.121094 M 24.203125 13.121094 "/>
<path fill-rule="nonzero" fill="rgb(36.862745%, 62.745098%, 93.72549%)" fill-opacity="1" d="M 1.800781 22.496094 L 5.46875 22.496094 C 5.75 22.496094 5.976562 22.722656 5.976562 23.003906 L 5.976562 31 C 5.976562 31.28125 5.75 31.507812 5.46875 31.507812 L 1.800781 31.507812 C 1.519531 31.507812 1.289062 31.28125 1.289062 31 L 1.289062 23.003906 C 1.289062 22.722656 1.519531 22.496094 1.800781 22.496094 M 1.800781 22.496094 "/>
</svg>

<svg role="img" viewBox="0 0 29.511 32" xmlns="http://www.w3.org/2000/svg"><defs><linearGradient gradientTransform="translate(-1.545 -.29)scale(1.81715)" gradientUnits="userSpaceOnUse" id="azure-metrics_svg__a" x1="6.57" x2="6.57" y1="7.06" y2="3.76"><stop offset="0" stop-color="rgb(46.666667%, 22.745098%, 86.274511%)"/><stop offset="1" stop-color="rgb(71.764708%, 47.843137%, 95.686275%)"/></linearGradient><linearGradient gradientTransform="translate(-1.545 -.29)scale(1.81715)" gradientUnits="userSpaceOnUse" id="azure-metrics_svg__b" x1="11.02" x2="11.02" y1="11.15" y2="7.86"><stop offset="0" stop-color="rgb(46.666667%, 22.745098%, 86.274511%)"/><stop offset="1" stop-color="rgb(71.764708%, 47.843137%, 95.686275%)"/></linearGradient><linearGradient gradientTransform="translate(-1.545 -.29)scale(1.81715)" gradientUnits="userSpaceOnUse" id="azure-metrics_svg__c" x1="15.15" x2="15.15" y1="3.79" y2=".5"><stop offset="0" stop-color="rgb(46.666667%, 22.745098%, 86.274511%)"/><stop offset="1" stop-color="rgb(71.764708%, 47.843137%, 95.686275%)"/></linearGradient><linearGradient gradientTransform="translate(-1.545 -.29)scale(1.81715)" gradientUnits="userSpaceOnUse" id="azure-metrics_svg__d" x1="2.85" x2="2.85" y1="11.86" y2="8.57"><stop offset="0" stop-color="rgb(46.666667%, 22.745098%, 86.274511%)"/><stop offset="1" stop-color="rgb(71.764708%, 47.843137%, 95.686275%)"/></linearGradient></defs><path d="m25.223 2.652-7.25 12.903-7.668-7.813-7.907 10.246 1.856 1.457 6.266-8.09 7.96 8.125 8.797-15.644Zm0 0" fill="rgb(71.764708%, 58.823532%, 97.647059%)"/><path d="M13.375 9.54c0 1.655-1.336 3-2.98 3a2.99 2.99 0 0 1-2.98-3 2.99 2.99 0 0 1 2.98-2.997c1.644 0 2.98 1.34 2.98 2.996m0 0" fill="url(#azure-metrics_svg__a)"/><path d="M21.46 16.973a2.99 2.99 0 0 1-2.98 2.996 2.984 2.984 0 0 1-2.98-2.996c0-1.657 1.336-3 2.98-3a2.99 2.99 0 0 1 2.98 3m0 0" fill="url(#azure-metrics_svg__b)"/><path d="M28.965 3.617a2.984 2.984 0 0 1-2.98 2.996 2.986 2.986 0 0 1-2.981-2.996c0-1.656 1.336-3 2.98-3a2.99 2.99 0 0 1 2.98 3m0 0" fill="url(#azure-metrics_svg__c)"/><path d="M6.613 18.281a2.99 2.99 0 0 1-2.98 2.996 2.99 2.99 0 0 1-2.98-2.996c0-1.656 1.335-3 2.98-3a2.99 2.99 0 0 1 2.98 3m0 0" fill="url(#azure-metrics_svg__d)"/><path d="M9.266 17.734h3.672a.51.51 0 0 1 .507.512V31a.52.52 0 0 1-.148.36.52.52 0 0 1-.36.148h-3.67A.51.51 0 0 1 8.758 31V18.246c0-.281.23-.512.508-.512m0 0" fill="rgb(0%, 47.058824%, 83.137256%)"/><path d="M16.734 22.496h3.672a.51.51 0 0 1 .508.508V31a.51.51 0 0 1-.508.508h-3.672a.507.507 0 0 1-.507-.508v-7.996a.51.51 0 0 1 .508-.508m7.468-9.375h3.672a.51.51 0 0 1 .508.508V31a.52.52 0 0 1-.149.36.52.52 0 0 1-.359.148h-3.672a.51.51 0 0 1-.508-.508V13.629a.51.51 0 0 1 .508-.508m0 0" fill="rgb(0%, 35.686275%, 63.137257%)"/><path d="M1.8 22.496h3.67c.281 0 .508.227.508.508V31a.507.507 0 0 1-.508.508H1.8A.51.51 0 0 1 1.289 31v-7.996a.51.51 0 0 1 .512-.508m0 0" fill="rgb(36.862746%, 62.7451%, 93.725491%)"/></svg>
